svgs/light/flux-capacitor.svg

<svg xmlns="http://www.w3.org/2000/svg" viewBox="0 0 448 512"><!-- Font Awesome Pro 5.15.1 by @fontawesome - https://fontawesome.com License - https://fontawesome.com/license (Commercial License) --><path d="M448,112V400a80.15451,80.15451,0,0,1-80,80H80A80.15451,80.15451,0,0,1,0,400V112A80.15451,80.15451,0,0,1,80,32H368A80.15451,80.15451,0,0,1,448,112Zm-32,0a48.0927,48.0927,0,0,0-48-48H80a48.0927,48.0927,0,0,0-48,48V400a48.0927,48.0927,0,0,0,48,48H368a48.0927,48.0927,0,0,0,48-48Zm-32,64a80.034,80.034,0,0,1-80,80,92.12951,92.12951,0,0,1-11.18751-1l45.125-45.0625c7.625-7.73438,13.78126-22.8125,13.78126-33.65625a48.01238,48.01238,0,0,0-48-48c-10.84375,0-25.90626,6.17187-33.65626,13.78125L224,188.125l-46.06251-46.10938c-7.75-7.60937-22.81249-13.78124-33.65624-13.78124a48.01238,48.01238,0,0,0-48,48c0,10.84374,6.15625,25.9375,13.78125,33.67187L155.1875,255A92.12916,92.12916,0,0,1,144,256a80,80,0,1,1,80-80,80,80,0,0,1,160,0ZM208,336V262.625l-75.3125-75.3125a18.38329,18.38329,0,0,1-4.375-11.01562,15.97086,15.97086,0,0,1,16-16,18.49292,18.49292,0,0,1,11,4.39062L224,233.375l68.68749-68.6875a18.49294,18.49294,0,0,1,11-4.39062,15.97086,15.97086,0,0,1,16,16,18.38323,18.38323,0,0,1-4.375,11.01562L240,262.625V336a16,16,0,0,1-32,0Zm96,0a80.00157,80.00157,0,1,1-129.93751-62L176,275.875V336a48,48,0,0,0,96,0V275.875L273.93749,274A79.34533,79.34533,0,0,1,304,336Z"/></svg>

<svg xmlns="http://www.w3.org/2000/svg" viewBox="0 0 448 512"><!-- Font Awesome Pro 6.0.0-alpha2 by @fontawesome - https://fontawesome.com License - https://fontawesome.com/license (Commercial License) --><path d="M448 112V400C447.875 444.125 412.125 479.875 368 480H80C35.875 479.875 0.125 444.125 0 400V112C0.125 67.875 35.875 32.125 80 32H368C412.125 32.125 447.875 67.875 448 112ZM416 112C416 85.5 394.5 64 368 64H80C53.5 64 32 85.5 32 112V400C32 426.5 53.5 448 80 448H368C394.5 448 416 426.5 416 400V112ZM384 176C384 220.125 348.125 256 304 256C300.25 255.875 296.5 255.5 292.75 255L337.875 210.001C345.5 202.25 351.75 187.125 351.75 176.25C351.75 149.75 330.25 128.25 303.75 128.25C292.875 128.25 277.75 134.5 270 142.001L224 188.125L177.875 142.001C170.125 134.375 155.125 128.25 144.25 128.25C117.75 128.25 96.25 149.75 96.25 176.25C96.25 187.125 102.5 202.125 110 209.875L155.25 255C151.5 255.5 147.75 255.875 144 256C99.875 256 64 220.125 64 176S99.875 96 144 96S224 131.875 224 176C224 131.875 259.875 96 304 96S384 131.875 384 176ZM208 336V262.625L132.75 187.25C130 184.25 128.5 180.375 128.25 176.25C128.25 172 130 168 133 165C136 162.001 140.125 160.25 144.375 160.25C148.375 160.5 152.25 162.001 155.25 164.75L224 233.375L292.625 164.75C295.75 162.001 299.625 160.5 303.625 160.25C307.875 160.25 312 162.001 315 165C318 168 319.75 172 319.625 176.25C319.5 180.375 318 184.25 315.25 187.25L240 262.625V336C240 344.875 232.875 352 224 352S208 344.875 208 336ZM304 336C304.25 373.375 278.5 405.875 242.125 414.375C205.75 422.875 168.375 405 152 371.375C135.75 337.75 144.875 297.375 174 274.001L176 275.875V336C176 362.5 197.5 384 224 384S272 362.5 272 336V275.875L273.875 274.001C292.875 289 304 311.875 304 336Z"/></svg>
